assets/images/bank-icons/bank-of-america.svg

<svg xmlns="http://www.w3.org/2000/svg" xml:space="preserve" id="Calque_1" x="0" y="0" viewBox="0 0 40 40"><style>.st0{fill:#fff}.st1{fill:#0a68b1}.st2{fill:#e31b37}</style><path d="M0 0h40v40H0z" class="st0"/><path d="M16.1 15.7c.9.4 2 .8 2.9 1.2-3 1.2-6 2.7-8.9 4.4-.9-.5-1.9-.9-2.9-1.4 3-1.7 5.9-3.1 8.9-4.2m-3.6-1.4c-3.2 1-6.2 2.4-9.1 3.9.9.4 1.8.7 2.7 1 2.8-1.7 5.8-3 8.9-4.1-.9-.2-1.6-.5-2.5-.8" class="st1"/><path d="M22.8 15.6c-2.5-1.2-5.1-2.3-7.7-3-.9.3-1.9.6-2.7.8 2.7.8 5.4 1.8 7.9 3.1.8-.4 1.7-.7 2.5-.9m4.1-1.3c-2.5-1.1-5.2-2.1-7.9-2.8-.8.2-1.7.4-2.5.6 2.6.8 5.3 1.8 7.8 2.9.8-.2 1.6-.5 2.6-.7m6.5 2.2c-6.3 2.2-12.4 5.2-17.8 9.1 1.3.8 2.6 1.7 4 2.6 5.2-4.1 10.8-7.4 16.9-10-1-.6-2.1-1.1-3.1-1.7M29 14.4c-6.6 1.8-12.8 4.5-18.6 8.3 1.2.7 2.5 1.3 3.8 2 5.6-3.9 11.7-6.8 18.2-8.8-1.2-.4-2.3-1-3.4-1.5" class="st2"/></svg>

<svg xmlns="http://www.w3.org/2000/svg" xmlns:xlink="http://www.w3.org/1999/xlink" id="Calque_1" x="0" y="0" version="1.1" viewBox="0 0 40 40" style="enable-background:new 0 0 40 40" xml:space="preserve"><style type="text/css">.st0{fill:#fff}.st1{fill:#0a68b1}.st2{fill:#e31b37}</style><rect width="40" height="40" class="st0"/><g><path d="M16.1,15.7c0.9,0.4,2,0.8,2.9,1.2c-3,1.2-6,2.7-8.9,4.4c-0.9-0.5-1.9-0.9-2.9-1.4 C10.2,18.2,13.1,16.8,16.1,15.7" class="st1"/><path d="M12.5,14.3c-3.2,1-6.2,2.4-9.1,3.9c0.9,0.4,1.8,0.7,2.7,1c2.8-1.7,5.8-3,8.9-4.1 C14.1,14.9,13.4,14.6,12.5,14.3" class="st1"/><path d="M22.8,15.6c-2.5-1.2-5.1-2.3-7.7-3c-0.9,0.3-1.9,0.6-2.7,0.8c2.7,0.8,5.4,1.8,7.9,3.1 C21.1,16.1,22,15.8,22.8,15.6 M26.9,14.3c-2.5-1.1-5.2-2.1-7.9-2.8c-0.8,0.2-1.7,0.4-2.5,0.6c2.6,0.8,5.3,1.8,7.8,2.9 C25.1,14.8,25.9,14.5,26.9,14.3 M33.4,16.5c-6.3,2.2-12.4,5.2-17.8,9.1c1.3,0.8,2.6,1.7,4,2.6c5.2-4.1,10.8-7.4,16.9-10 C35.5,17.6,34.4,17.1,33.4,16.5 M29,14.4c-6.6,1.8-12.8,4.5-18.6,8.3c1.2,0.7,2.5,1.3,3.8,2c5.6-3.9,11.7-6.8,18.2-8.8 C31.2,15.5,30.1,14.9,29,14.4" class="st2"/></g></svg>
